lib/logo_tmp/nrk-logo-yr.svg

<svg xmlns="http://www.w3.org/2000/svg" viewBox="0 0 26 26"><path fill="#000" d="M13 25.5C6.096 25.5.5 19.904.5 13S6.096.5 13 .5 25.5 6.096 25.5 13 19.904 25.5 13 25.5Zm7.55-8.598c-.43-.465-1.114-1.397-1.114-1.397a3.555 3.555 0 0 0 1.578-.912c.692-.688 1.069-1.664 1.064-2.715.01-1.09-.468-2.07-1.225-2.685-.755-.622-1.726-.913-2.736-.913h-1.784a3.038 3.038 0 0 0-3.029 3.033v7.48h2.02v-2.124c0-.55.461-1.01 1.01-1.01h.806l2.328 2.848c.164.159.38.262.62.282h.044l.044.003.042-.003h1.196l.003-1.634s-.493.14-.861-.253h-.006Zm-8.557-8.294h-2v3.26c-.037 1.216-1.175 1.61-2.084 1.622-1.037-.014-2.129-.591-2.129-2.17l-.003-2.719h-1.97v2.72c0 1.233.428 2.287 1.234 3.047.731.69 1.733 1.075 2.827 1.093h.081c.735-.013 1.815-.493 2.024-.917v.9c0 1.193-1.517 1.97-1.926 2.174l.03.034-.028.017 1.267 1.534c.735-.43 2.669-1.284 2.676-3.98V8.608h.001Zm6.306 5.03h-1.965c-.354 0-.692.146-1.01.257v-2.584c0-.547.461-1.009 1.01-1.01h1.783c.628 0 1.131.185 1.445.447.31.267.485.581.495 1.132-.005.591-.194.997-.476 1.284-.287.284-.692.473-1.284.473l.002.002v-.001Z"/></svg>

<svg width="26" height="26" viewBox="0 0 26 26" fill="none" xmlns="http://www.w3.org/2000/svg">
<path d="M13 25.5C6.096 25.5 0.5 19.904 0.5 13C0.5 6.096 6.096 0.5 13 0.5C19.904 0.5 25.5 6.096 25.5 13C25.5 19.904 19.904 25.5 13 25.5ZM20.55 16.902C20.12 16.437 19.436 15.505 19.436 15.505C20.0323 15.3433 20.5762 15.029 21.014 14.593C21.706 13.905 22.083 12.929 22.078 11.878C22.088 10.788 21.61 9.808 20.853 9.193C20.098 8.571 19.127 8.28 18.117 8.28H16.333C15.5297 8.28238 14.76 8.60282 14.1924 9.17121C13.6247 9.73961 13.3053 10.5097 13.304 11.313V18.793H15.324V16.669C15.324 16.119 15.785 15.659 16.334 15.659H17.14L19.468 18.507C19.632 18.666 19.848 18.769 20.088 18.789H20.132L20.176 18.792L20.218 18.789H21.414L21.417 17.155C21.417 17.155 20.924 17.295 20.556 16.902H20.551H20.55ZM11.993 8.608H9.993V11.868C9.956 13.084 8.818 13.478 7.909 13.49C6.872 13.476 5.78 12.899 5.78 11.32L5.777 8.601H3.807V11.321C3.807 12.554 4.235 13.608 5.041 14.368C5.772 15.058 6.774 15.443 7.868 15.461H7.949C8.684 15.448 9.764 14.968 9.973 14.544V15.444C9.973 16.637 8.456 17.414 8.047 17.618L8.077 17.652L8.049 17.669L9.316 19.203C10.051 18.773 11.985 17.919 11.992 15.223V8.608H11.993ZM18.299 13.638H16.334C15.98 13.638 15.642 13.784 15.324 13.895V11.311C15.324 10.764 15.785 10.302 16.334 10.301H18.117C18.745 10.301 19.248 10.486 19.562 10.748C19.872 11.015 20.047 11.329 20.057 11.88C20.052 12.471 19.863 12.877 19.581 13.164C19.294 13.448 18.889 13.637 18.297 13.637L18.299 13.639V13.638Z" fill="black"/>
</svg>
